X:456
T:The Marquis of Huntly's Strathspey
C:William Marshall
S:Colin Hume's website,  colinhume.com  - chords can also be printed below the stave.
N:Originally in Gm (or G Dorian)
Q:1/4=120
M:4/4
L:1/8
K:Em
P:A
|:D | "Em"B,<E {F}E>D B,<E E>F | "D"D>E F>G A/G/F/E/ D<F | "Em"B,<E {F}E>D B,<E E>e | "D"d>A "B7"B/A/G/F/ "Em"G<E E :|
P:B
B | "Em"e>f g>e B<e g>e | "D"f/e/d/B/ A>c d<A f>d | "Em"e>f g>e B<e g>e | "D"g/f/e/d/ "B7"B>^d "Em"~e3 |]
B | "Em"e>f g>e "B7"f<^d "Em"e>c | "D"d>B A<d F<D A>D | "Em"B,<E {F}E>D B,<E E>e | "D"d>A "B7"B/A/G/F/ "Em"G<E E |]

